X:1
T:助眠钢琴曲
M:4/4
L:1/4
Q:1/4=60
K:C
G,2 | C E G E | D F A F | E G c G | F A d A |
G, B, D B, | A, C E C | G, B, D B, | F A c A |
E G c G | D F A F | C E G E | G,2